X: 11462
Q: "Allegretto."
M: 2/4
L: 1/16
K: G
[|\
g4 d3=f | e4 c3e | d3cB3A | B2z2 G2z2 |\
g4 d3=f | e4 c3e | d3cB3A | G2z2 g2z2 |\
c4 G2c2 | e4 c3c | d2d2 edcd | e2d2c2G2 |\
c4 G2c2 | e4 c2c2 | d2d2 edcd | e2z2 c2"^D.C."z2 |]


